X: 15
T: Renjia douzai ni buzai
%%abc-version 2.0
%%abcx-abcm2ps-target-version 5.9.1 (29 Sep 2008)
%%abc-creator hum2abc beta
%%abcx-conversion-date 2013/10/02 07:52:29
%%abc-edited-by Helmut Schaffrath
%%humdrum-veritas 3348567145
%%humdrum-veritas-data 3148138713
%%continueall 1
%%barnumbers 0
L: 1/16
M: 2/4
K: F
g2a4a d' [I:setbarnb 1]| 
g2 g2 f2 f d | 
d2 c A A2 c f | 
A8 | 
g2a4a d' | 
g2 g2 f2 f d | 
d2 c A A2 c f | 
d8 |]  



